X:73
T:Geese in the Bog (2)
M:6/8
L:1/8
F:http://blackrosetheband.googlepages.com/ABCTUNES.ABC May 2009
K:G
f||:"G"gBB dBB|gBB dBB|gBB dBA|"Em"Bee e2f|
"G"gBB dBB|gBB def|gfe dBA|"Em"Bee e2d:||
|:"Am"e2a "G"e2g|"Am"e2a "G"ged|"Am"e2a "G"e2g|"Am"e2a "D"bag|
"Am"aaa "G"g2g|"Am"e2a "G"ged|"Em"gfe dBA|"G"Bee "Em"e2d:||
